X: 1
T: James & Emilie Kirkness
C: Jennifer Wrigley
R: air
Z: 2021 John Chambers <jc:trillian.mit.edu>
S: handout for online BSFC workshop with Jennifer Wrigley 2021-05-17
M: 4/4
L: 1/4
K: A
uE |\
(vc{dc}B) ucA | e2 AB | A2 uGA | F2 E{FE}D ||\
(vCA,) AE | (udc) BA | B2 c2 | Eue vdB ||
(vc{dc}B) ucA | e2 AB | A2 GA | f2 {gf}ed ||\
(vc{dc}A) df | (ue{fg}a) euE | A2 B2 | A3 |]
(uA/G/) |\
FA (f{gf}c) | e2 (uc{dc}B) | cA GE | vF2 (uEF) ||\
Af ec | eA {g}ac | (vdc) (uBA) | B2-{cBA}uA-G ||
FA (f{gf}c) | e2 (uc{dc}B) | cA GA | f2 (ued) ||\
(c{dc}A) df | (ue{fg}a) euE | A2B2 | A2- A2 |]
